Obsidian/actions/16s/path-mode-polyline.svg

<svg viewBox="0 0 16 16" xmlns="http://www.w3.org/2000/svg"><path d="m2 2v3h2.125l4.875 6.5v2.5h3v-3h-2.125l-4.875-6.5019531v-.4980469h6v1h3v-3h-3v1h-6v-1zm1 1h1v1h-.0019531-.9980469zm9 0h1v1h-1zm-2 9h1v1h-1z" fill="#f2f2f2"/></svg>

<svg xmlns="http://www.w3.org/2000/svg" viewBox="0 0 16 16">
  <defs id="defs3051">
    <style type="text/css" id="current-color-scheme">
      .ColorScheme-Text {
        color:#f2f2f2;
      }
      </style>
  </defs>
 <path style="fill:currentColor;fill-opacity:1;stroke:none" 
       d="M 2 2 L 2 5 L 4.125 5 L 9 11.5 L 9 14 L 12 14 L 12 11 L 9.875 11 L 5 4.4980469 L 5 4 L 11 4 L 11 5 L 14 5 L 14 2 L 11 2 L 11 3 L 5 3 L 5 2 L 2 2 z M 3 3 L 4 3 L 4 4 L 3.9980469 4 L 3 4 L 3 3 z M 12 3 L 13 3 L 13 4 L 12 4 L 12 3 z M 10 12 L 11 12 L 11 13 L 10 13 L 10 12 z "
     class="ColorScheme-Text"
     />
</svg>
